packages/sources/icons/src/vitamix/volume-up-fill.svg

<svg width="16" height="16" viewBox="0 0 16 16" fill="none" xmlns="http://www.w3.org/2000/svg">
<path fill-rule="evenodd" clip-rule="evenodd" d="M3.92601 10.6666H1.33334C0.965149 10.6666 0.666672 10.3682 0.666672 9.99998V5.99998C0.666672 5.63179 0.965149 5.33331 1.33334 5.33331H3.92601L7.45534 2.44531C7.55502 2.36359 7.69288 2.34666 7.80937 2.40184C7.92586 2.45702 8.00009 2.57441 8.00001 2.70331V13.2966C8.00009 13.4255 7.92586 13.5429 7.80937 13.5981C7.69288 13.6533 7.55502 13.6364 7.45534 13.5546L3.92667 10.6666H3.92601ZM12.9373 13.4226L11.9933 12.4786C13.2716 11.3412 14.002 9.71106 14 7.99997C14.0017 6.19908 13.1927 4.49307 11.7973 3.35463L12.744 2.40797C14.3882 3.79993 15.3355 5.84569 15.3333 7.99997C15.3333 10.1486 14.4093 12.0813 12.9373 13.4226ZM9.6273 10.1126L10.5753 11.0606C11.4466 10.3266 12 9.22796 12 7.99996C12.001 6.72859 11.3968 5.53266 10.3726 4.7793L9.4133 5.73863C10.1666 6.20996 10.6666 7.04663 10.6666 7.99996C10.6674 8.82745 10.2833 9.60822 9.6273 10.1126Z" fill="#001018"/>
</svg>

<svg width="16" height="16" fill="none" xmlns="http://www.w3.org/2000/svg"><path fill-rule="evenodd" clip-rule="evenodd" d="M3.926 10.667H1.333A.667.667 0 0 1 .667 10V6c0-.368.298-.667.666-.667h2.593l3.53-2.888A.333.333 0 0 1 8 2.703v10.594a.333.333 0 0 1-.545.258l-3.528-2.888h-.001zm9.011 2.756-.944-.944A5.985 5.985 0 0 0 14 8a5.988 5.988 0 0 0-2.203-4.645l.947-.947A7.317 7.317 0 0 1 15.334 8a7.315 7.315 0 0 1-2.397 5.423zm-3.31-3.31.948.948A3.991 3.991 0 0 0 12 8a3.994 3.994 0 0 0-1.627-3.22l-.96.959A2.663 2.663 0 0 1 10.667 8c0 .827-.384 1.608-1.04 2.113z" fill="#001018"/></svg>
